icons/mobile/24/svg/folder-24.svg

<svg width="24" height="24" viewBox="0 0 24 24" fill="none" xmlns="http://www.w3.org/2000/svg">
<path fill-rule="evenodd" clip-rule="evenodd" d="M8.6123 3.5C9.57421 3.50009 10.4908 3.90831 11.1338 4.62402L12.3906 6.02148C14.381 6.03311 16.5777 6.13466 18.9443 6.37988L19.1055 6.40039C20.7535 6.65127 21.9999 8.07174 22 9.7627V17.2588C22 18.9873 20.707 20.4584 18.9727 20.6387C16.8513 20.8595 14.5169 21.001 12 21.001C10.169 21.001 8.15672 20.9254 5.99219 20.7314L5.05566 20.6416C3.32848 20.4615 2 19.0035 2 17.2578V6.89453C2.00025 5.02054 3.51779 3.50022 5.3916 3.5H8.6123ZM5.3916 5.25C4.48609 5.25022 3.75025 5.98522 3.75 6.89453V17.2578C3.75 18.1 4.39373 18.8123 5.23633 18.9004L6.14844 18.9893C8.25697 19.1782 10.217 19.251 12 19.251C14.451 19.251 16.7245 19.1126 18.791 18.8975C19.6164 18.8115 20.25 18.1081 20.25 17.2588V9.7627C20.2499 8.97312 19.684 8.29732 18.9189 8.14355L18.7637 8.12012C16.3063 7.8655 14.0376 7.76953 12 7.76953C11.752 7.76953 11.5155 7.6648 11.3496 7.48047L9.83301 5.79395C9.52218 5.44793 9.07809 5.25009 8.6123 5.25H5.3916Z" fill="black"/>
</svg>

<!-- This Source Code Form is subject to the terms of the Mozilla Public
   - License, v. 2.0. If a copy of the MPL was not distributed with this
   - file, You can obtain one at http://mozilla.org/MPL/2.0/. -->
<svg xmlns="http://www.w3.org/2000/svg" width="24" height="24" fill="none" viewBox="0 0 24 24">
    <path fill="#000" fill-rule="evenodd" d="M8.612 3.5a3.4 3.4 0 0 1 2.522 1.124l1.257 1.397a67 67 0 0 1 6.553.359l.162.02A3.41 3.41 0 0 1 22 9.763v7.496c0 1.728-1.293 3.2-3.027 3.38a67.4 67.4 0 0 1-12.98.092l-.937-.09A3.41 3.41 0 0 1 2 17.259V6.895A3.393 3.393 0 0 1 5.392 3.5zm-3.22 1.75c-.906 0-1.642.735-1.642 1.645v10.363c0 .842.644 1.554 1.486 1.642l.912.09a65.6 65.6 0 0 0 12.643-.092 1.64 1.64 0 0 0 1.459-1.64V9.764a1.66 1.66 0 0 0-1.331-1.62l-.155-.023A66 66 0 0 0 12 7.77a.88.88 0 0 1-.65-.29L9.833 5.794a1.64 1.64 0 0 0-1.22-.544z" clip-rule="evenodd" />
</svg>
